site/src/assets/images/partners/spearbit.svg

<svg width="250" height="49" viewBox="0 0 250 49" fill="none" xmlns="http://www.w3.org/2000/svg">
<g clip-path="url(#clip0_2617_1698)">
<path d="M23.175 48.9796V45.8571C23.175 42.9097 24.665 40.1625 27.13 38.5562L30.335 36.4645L19.25 15.2323L8.165 36.4645L11.375 38.5562C13.84 40.1625 15.325 42.9047 15.33 45.8471V48.9746L0 38.9415L19.255 0L38.51 38.9415L23.18 48.9796H23.175Z" fill="white"/>
<path d="M68.9306 16.9892C68.8006 17.2194 68.6606 17.3845 68.5156 17.4846C68.3706 17.5897 68.1856 17.6398 67.9706 17.6398C67.7556 17.6398 67.4956 17.5547 67.2306 17.3896C66.9656 17.2244 66.6456 17.0343 66.2756 16.8291C65.9056 16.6239 65.4756 16.4338 64.9806 16.2686C64.4856 16.1035 63.9006 16.0134 63.2306 16.0134C62.6206 16.0134 62.0906 16.0885 61.6356 16.2336C61.1806 16.3787 60.7956 16.5839 60.4856 16.8441C60.1756 17.1043 59.9456 17.4196 59.7906 17.7799C59.6406 18.1452 59.5606 18.5455 59.5606 18.9808C59.5606 19.5363 59.7156 19.9967 60.0256 20.367C60.3356 20.7373 60.7456 21.0525 61.2556 21.3127C61.7656 21.5729 62.3456 21.8081 63.0006 22.0133C63.6506 22.2185 64.3206 22.4386 65.0056 22.6738C65.6906 22.909 66.3606 23.1792 67.0106 23.4895C67.6606 23.7997 68.2456 24.19 68.7556 24.6654C69.2656 25.1408 69.6756 25.7163 69.9856 26.4018C70.2956 27.0874 70.4506 27.9181 70.4506 28.8989C70.4506 29.9647 70.2706 30.9605 69.9056 31.8913C69.5406 32.822 69.0106 33.6327 68.3106 34.3232C67.6106 35.0138 66.7556 35.5592 65.7456 35.9546C64.7356 36.3499 63.5756 36.55 62.2756 36.55C61.5256 36.55 60.7856 36.475 60.0606 36.3299C59.3306 36.1847 58.6356 35.9746 57.9656 35.6993C57.2956 35.4291 56.6706 35.1039 56.0806 34.7186C55.4956 34.3383 54.9706 33.9129 54.5156 33.4475L55.8056 31.3458C55.9156 31.1957 56.0556 31.0656 56.2306 30.9605C56.4056 30.8554 56.5906 30.8054 56.7856 30.8054C57.0556 30.8054 57.3506 30.9155 57.6656 31.1407C57.9806 31.3658 58.3556 31.611 58.7906 31.8813C59.2256 32.1515 59.7356 32.4017 60.3156 32.6219C60.8956 32.847 61.5956 32.9571 62.4106 32.9571C63.6606 32.9571 64.6256 32.6619 65.3106 32.0664C65.9956 31.4759 66.3356 30.6252 66.3356 29.5144C66.3356 28.8938 66.1806 28.3884 65.8706 27.9981C65.5606 27.6078 65.1506 27.2775 64.6406 27.0123C64.1306 26.7471 63.5506 26.5219 62.8956 26.3368C62.2456 26.1516 61.5806 25.9515 60.9056 25.7313C60.2306 25.5161 59.5706 25.2509 58.9156 24.9507C58.2656 24.6454 57.6806 24.2501 57.1706 23.7597C56.6606 23.2693 56.2506 22.6588 55.9406 21.9232C55.6306 21.1876 55.4756 20.2819 55.4756 19.206C55.4756 18.3453 55.6456 17.5096 55.9906 16.694C56.3356 15.8783 56.8306 15.1527 57.4806 14.5222C58.1306 13.8917 58.9356 13.3863 59.8956 13.006C60.8506 12.6257 61.9506 12.4355 63.1856 12.4355C64.5756 12.4355 65.8606 12.6507 67.0306 13.0861C68.2056 13.5214 69.2056 14.1319 70.0306 14.9125L68.9406 16.9842L68.9306 16.9892Z" fill="white"/>
<path d="M88.4412 12.6953C90.0162 12.6953 91.3813 12.8805 92.5312 13.2508C93.6812 13.6211 94.6362 14.1365 95.3812 14.802C96.1312 15.4676 96.6862 16.2582 97.0512 17.1839C97.4162 18.1097 97.5962 19.1205 97.5962 20.2164C97.5962 21.3123 97.4062 22.4032 97.0262 23.3589C96.6462 24.3147 96.0762 25.1304 95.3162 25.8159C94.5562 26.5015 93.6012 27.0319 92.4562 27.4122C91.3112 27.7925 89.9712 27.9827 88.4412 27.9827H85.1663V36.2844H80.7812V12.6953H88.4412ZM88.4412 24.5549C89.2462 24.5549 89.9463 24.4548 90.5413 24.2547C91.1413 24.0545 91.6362 23.7643 92.0312 23.389C92.4263 23.0137 92.7212 22.5583 92.9212 22.0178C93.1162 21.4774 93.2162 20.8769 93.2162 20.2164C93.2162 19.5559 93.1162 19.0154 92.9212 18.505C92.7262 17.9946 92.4313 17.5592 92.0413 17.199C91.6513 16.8387 91.1563 16.5634 90.5563 16.3733C89.9563 16.1831 89.2512 16.0881 88.4362 16.0881H85.1612V24.5549H88.4362H88.4412Z" fill="white"/>
<path d="M111.877 16.1881V22.7284H120.122V26.1062H111.877V32.7765H122.342V36.2844H107.477V12.6953H122.342V16.1881H111.877Z" fill="white"/>
<path d="M152.932 36.2852H149.542C149.162 36.2852 148.853 36.1902 148.613 36C148.373 35.8099 148.192 35.5747 148.077 35.2894L146.318 30.4755H136.553L134.792 35.2894C134.707 35.5396 134.538 35.7698 134.288 35.975C134.038 36.1802 133.727 36.2852 133.357 36.2852H129.938L139.213 12.7012H143.678L152.932 36.2852ZM145.193 27.378L142.323 19.5317C142.183 19.1814 142.033 18.7711 141.883 18.2907C141.733 17.8103 141.578 17.2949 141.428 16.7394C141.288 17.2949 141.143 17.8153 140.988 18.2957C140.838 18.7811 140.688 19.2014 140.548 19.5617L137.698 27.373H145.193V27.378Z" fill="white"/>
<path d="M180.291 36.2844H176.331C175.581 36.2844 175.036 35.9891 174.701 35.4037L169.746 27.8526C169.561 27.5673 169.356 27.3672 169.136 27.2471C168.916 27.127 168.586 27.0669 168.151 27.0669H166.276V36.2844H161.891V12.6953H169.081C170.676 12.6953 172.051 12.8604 173.196 13.1907C174.341 13.521 175.281 13.9864 176.016 14.5868C176.751 15.1873 177.291 15.8979 177.636 16.7336C177.981 17.5642 178.156 18.48 178.156 19.4808C178.156 20.2764 178.041 21.027 177.806 21.7326C177.571 22.4382 177.236 23.0787 176.796 23.6592C176.356 24.2346 175.811 24.74 175.166 25.1754C174.521 25.6108 173.781 25.951 172.956 26.2012C173.241 26.3664 173.501 26.5565 173.741 26.7817C173.981 27.0069 174.196 27.2671 174.391 27.5723L180.291 36.2844ZM169.011 23.9194C169.836 23.9194 170.556 23.8143 171.171 23.6091C171.786 23.404 172.291 23.1187 172.686 22.7534C173.081 22.3881 173.381 21.9578 173.576 21.4574C173.771 20.957 173.871 20.4065 173.871 19.8111C173.871 18.6151 173.476 17.6944 172.691 17.0538C171.901 16.4133 170.701 16.0931 169.081 16.0931H166.276V23.9244H169.016L169.011 23.9194Z" fill="white"/>
<path d="M197.484 12.6953C199.029 12.6953 200.349 12.8404 201.444 13.1357C202.539 13.4309 203.439 13.8462 204.139 14.3917C204.839 14.9371 205.354 15.5927 205.679 16.3633C206.004 17.1339 206.169 18.0046 206.169 18.9754C206.169 19.5308 206.089 20.0613 205.924 20.5667C205.759 21.0721 205.509 21.5475 205.164 21.9878C204.819 22.4282 204.389 22.8285 203.859 23.1888C203.329 23.5491 202.704 23.8543 201.974 24.1045C205.209 24.8351 206.829 26.5815 206.829 29.3588C206.829 30.3596 206.639 31.2853 206.259 32.131C205.879 32.9767 205.324 33.7123 204.599 34.3228C203.869 34.9383 202.974 35.4187 201.909 35.764C200.844 36.1142 199.629 36.2844 198.259 36.2844H189.359V12.6953H197.474H197.484ZM193.749 16.0881V22.9086H197.239C198.739 22.9086 199.869 22.6383 200.639 22.0929C201.404 21.5475 201.789 20.6868 201.789 19.5008C201.789 18.3149 201.439 17.3991 200.744 16.8737C200.049 16.3533 198.964 16.0931 197.484 16.0931H193.749V16.0881ZM198.184 32.8566C198.999 32.8566 199.684 32.7565 200.239 32.5614C200.794 32.3662 201.234 32.106 201.569 31.7807C201.904 31.4555 202.139 31.0752 202.289 30.6398C202.434 30.2045 202.509 29.7441 202.509 29.2537C202.509 28.7633 202.429 28.2829 202.264 27.8776C202.099 27.4673 201.844 27.122 201.499 26.8317C201.149 26.5415 200.704 26.3213 200.154 26.1712C199.604 26.0211 198.944 25.941 198.174 25.941H193.759V32.8566H198.194H198.184Z" fill="white"/>
<path d="M221.759 36.2844H217.359V12.6953H221.759V36.2794V36.2844Z" fill="white"/>
<path d="M250.001 16.3041H242.896V36.2852H238.511V16.3041H231.406V12.7012H250.001V16.3041Z" fill="white"/>
</g>
<defs>
<clipPath id="clip0_2617_1698">
<rect width="250" height="48.9796" fill="white"/>
</clipPath>
</defs>
</svg>

<svg xmlns="http://www.w3.org/2000/svg" fill="none" viewBox="0 0 250 49">
  <g fill="#fff" clip-path="url(#a)">
    <path
      d="M23.175 48.98v-3.123a8.716 8.716 0 0 1 3.955-7.3l3.205-2.093L19.25 15.233 8.165 36.465l3.21 2.091a8.717 8.717 0 0 1 3.955 7.291v3.128L0 38.94 19.255 0 38.51 38.941 23.18 48.98h-.005ZM68.93 16.99c-.13.23-.27.395-.414.495a.91.91 0 0 1-.545.155c-.215 0-.475-.085-.74-.25a21.795 21.795 0 0 0-.955-.56 7.68 7.68 0 0 0-1.295-.561c-.495-.165-1.08-.256-1.75-.256-.61 0-1.14.075-1.595.22-.455.146-.84.35-1.15.611-.31.26-.54.576-.695.936-.15.365-.23.765-.23 1.2 0 .556.155 1.017.465 1.387.31.37.72.685 1.23.946.51.26 1.09.495 1.745.7.65.205 1.32.426 2.005.66.685.236 1.355.506 2.005.817.65.31 1.235.7 1.745 1.175.51.476.92 1.051 1.23 1.737.31.685.465 1.516.465 2.497 0 1.066-.18 2.061-.545 2.992a6.923 6.923 0 0 1-1.595 2.432c-.7.69-1.555 1.236-2.565 1.632-1.01.395-2.17.595-3.47.595-.75 0-1.49-.075-2.215-.22a11.273 11.273 0 0 1-2.095-.63 10.85 10.85 0 0 1-1.885-.981 9.18 9.18 0 0 1-1.565-1.272l1.29-2.101c.11-.15.25-.28.425-.386.175-.105.36-.155.555-.155.27 0 .565.11.88.336.315.225.69.47 1.125.74.435.27.945.52 1.525.74.58.226 1.28.336 2.095.336 1.25 0 2.215-.295 2.9-.89.685-.591 1.025-1.442 1.025-2.553 0-.62-.155-1.126-.465-1.516-.31-.39-.72-.72-1.23-.986a9.194 9.194 0 0 0-1.745-.675 55.03 55.03 0 0 1-1.99-.606 17.638 17.638 0 0 1-1.99-.78 6.462 6.462 0 0 1-1.745-1.191c-.51-.49-.92-1.101-1.23-1.837-.31-.735-.465-1.641-.465-2.717 0-.86.17-1.696.515-2.512a6.557 6.557 0 0 1 1.49-2.172c.65-.63 1.455-1.136 2.415-1.516.955-.38 2.055-.57 3.29-.57 1.39 0 2.675.215 3.845.65 1.175.435 2.175 1.046 3 1.826l-1.09 2.072-.01.005ZM88.441 12.695c1.575 0 2.94.185 4.09.556 1.15.37 2.105.886 2.85 1.551a6.16 6.16 0 0 1 1.67 2.382c.365.926.545 1.936.545 3.032s-.19 2.187-.57 3.143a6.493 6.493 0 0 1-1.71 2.457c-.76.686-1.715 1.216-2.86 1.596-1.145.38-2.485.57-4.015.57h-3.275v8.302h-4.385V12.695h7.66Zm0 11.86c.805 0 1.505-.1 2.1-.3.6-.2 1.095-.49 1.49-.866.395-.375.69-.83.89-1.371.195-.54.295-1.141.295-1.802 0-.66-.1-1.2-.295-1.711a3.411 3.411 0 0 0-.88-1.306c-.39-.36-.885-.636-1.485-.826-.6-.19-1.305-.285-2.12-.285h-3.275v8.467h3.28ZM111.877 16.188v6.54h8.245v3.378h-8.245v6.67h10.465v3.508h-14.865V12.695h14.865v3.493h-10.465ZM152.932 36.285h-3.39c-.38 0-.689-.095-.929-.285a1.71 1.71 0 0 1-.536-.71l-1.759-4.814h-9.765l-1.761 4.813c-.085.25-.254.48-.504.686-.25.205-.561.31-.931.31h-3.419l9.275-23.584h4.465l9.254 23.584Zm-7.739-8.907-2.87-7.846c-.14-.35-.29-.76-.44-1.241-.15-.48-.305-.996-.455-1.552-.14.556-.285 1.076-.44 1.557-.15.485-.3.905-.44 1.266l-2.85 7.811h7.495v.005ZM180.291 36.284h-3.96c-.75 0-1.295-.295-1.63-.88l-4.955-7.551c-.185-.286-.39-.486-.61-.606-.22-.12-.55-.18-.985-.18h-1.875v9.217h-4.385V12.695h7.19c1.595 0 2.97.165 4.115.496 1.145.33 2.085.795 2.82 1.396.735.6 1.275 1.31 1.62 2.147.345.83.52 1.746.52 2.747a7.08 7.08 0 0 1-.35 2.252 6.626 6.626 0 0 1-1.01 1.926 6.866 6.866 0 0 1-1.63 1.516 8.158 8.158 0 0 1-2.21 1.026 4.094 4.094 0 0 1 1.435 1.371l5.9 8.712Zm-11.28-12.365c.825 0 1.545-.105 2.16-.31.615-.205 1.12-.49 1.515-.856.395-.365.695-.795.89-1.296.195-.5.295-1.05.295-1.646 0-1.196-.395-2.117-1.18-2.757-.79-.64-1.99-.96-3.61-.96h-2.805v7.83h2.74l-.005-.005ZM197.484 12.695c1.545 0 2.865.145 3.96.44 1.095.296 1.995.711 2.695 1.257.7.545 1.215 1.2 1.54 1.971.325.77.49 1.642.49 2.612 0 .556-.08 1.086-.245 1.592-.165.505-.415.98-.76 1.42a5.72 5.72 0 0 1-1.305 1.202 7.87 7.87 0 0 1-1.885.916c3.235.73 4.855 2.476 4.855 5.254 0 1-.19 1.926-.57 2.772a6.12 6.12 0 0 1-1.66 2.192c-.73.615-1.625 1.096-2.69 1.441-1.065.35-2.28.52-3.65.52h-8.9V12.695h8.125Zm-3.735 3.393v6.82h3.49c1.5 0 2.63-.27 3.4-.815.765-.546 1.15-1.406 1.15-2.592 0-1.186-.35-2.102-1.045-2.627-.695-.52-1.78-.78-3.26-.78h-3.735v-.006Zm4.435 16.769c.815 0 1.5-.1 2.055-.296.555-.195.995-.455 1.33-.78.335-.325.57-.706.72-1.141.145-.436.22-.896.22-1.386 0-.49-.08-.971-.245-1.376a2.63 2.63 0 0 0-.765-1.046c-.35-.29-.795-.51-1.345-.66-.55-.15-1.21-.231-1.98-.231h-4.415v6.916h4.435-.01ZM221.759 36.284h-4.4V12.695h4.4v23.589ZM250.001 16.304h-7.105v19.981h-4.385v-19.98h-7.105V12.7h18.595v3.603Z" />
  </g>
  <defs>
    <clipPath id="a">
      <path fill="#fff" d="M0 0h250v48.98H0z" />
    </clipPath>
  </defs>
</svg>
